X:406
T:Major Manson's Farewell To Clashantrushal 
C:Joe Buchanan's Scottish Tome - Page 366.0
I:366 0
R:March
Z:Carl Allison
L:1/8
M:2/4
K:A
A/>B/ | "A"{B}c2 BA/>c/ | "A"{f}eA/>B/ ca/>f/ | "A"eA/>c/ "F#m"f/>e/(c/<A/) | "A"(c/<e/)a/>c/ "G"BA/>B/ |
"A"{B}c2 BA/>c/ | "A"{f}eA/>B/ {d}c(B/>A/) | "F#m"(c/<e/)a/>f/ "E7"e/>c/(B/<c/) | "A"{c}A2 {A}A2 :|
(c/<e/) | "D"{^g}f2 f/>e/f/>=g/ | "D"f/>a/a/>f/ "A"{f}eA/>c/ | "A"f/>e/(c/<A/) (c/<e/)A/>f/ | "A"e/>f/a/>c/ {c}B(c/<e/) |
"D"{^g}f2 f/>e/f/>=g/ | "D"f/>a/a/>f/ {f}ec/>A/ | "F#m"(c/<e/)a/>f/ "E7"e/>c/(B/<c/) | "A"{c}A2 {A}Ac/<e/ |
"D"{^g}f2 f/>e/f/>g/ | "D"f/>a/a/>f/ "A"{f}eA/>c/ | "A"f/>e/(c/<A/) "F#m"(c/<e/)A/>f/ | "A"e/>f/a/>c/ "G"{c}BA/>B/ |
"A"{B}c2 BA/>c/ | "A"eA/>B/ c(B/>A/) | "A"(c/<e/)a/>f/ "A7"e/>c/(B/<c/) | "A"{c}A2 {A}A2 |]
A/>B/ | "A"{B}c2 c/>A/A/>c/ | "A"A/>c/c/>B/ B/>A/A/>B/ | "A"{f}eA/>c/ f/>e/c/>A/ | "A"(c/<e/)a/>c/ "E7"{c}BA/>B/ |
"A"{/B} c2 c/>A/A/>c/ | "A"A/>c/c/>B/ "G"B/>A/A/>=G/ | "F#m"c/<e/a/>f/ "E7"e/>c/B/<c/ | "A"{c}A2 {A}A2 :|
(c/<e/) | "D"f/>a/a/>f/ "A"{f}eA/c/ | "D"f/>e/e/>f/ "A"{d}c(B/<A/) | "D"f/>a/a/>f/ "A"{f}eA/>c/ | "F#m"f/>e/e/>c/ "E7"B(c/<e/) |
"D"f/>a/a/>f/ "A"{f}e(A/>c/) | "D"f/>e/e/>f/ "A"{/d}c(B/<A/) | "F#m"c/<e/a/<f/ "E7"e/>c/(B/<c/) | "A"{c}A2 {A}A(c/<e/) |
"D"f/>a/a/>f/ "A"{f}eA/>c/ | "D"f/>e/e/>f/ "A"{d}c(B/<A/) | "D"f/>a/a/>f/ "A"{f}eA/>c/ | "F#m"f/>e/e/>c/ "E7"BA/>B/ |
"A"{d}c2 c/>A/A/>c/ | "F#m"A/>f/e/>f/ "A"c/>A/A/>d/ | "F#m"(c/<e/)a/>f/ "E7"e/>c/(B/<c/) | "A"{c}A2 {A}A2 |]

